src/assets/icons/pro/pro-seal.svg

<svg width="20" height="20" viewBox="0 0 20 20" fill="none" xmlns="http://www.w3.org/2000/svg">
<path fill-rule="evenodd" clip-rule="evenodd" d="M0 10C0 4.47715 4.47715 0 10 0C15.5228 0 20 4.47715 20 10C20 15.5228 15.5228 20 10 20C4.47715 20 0 15.5228 0 10Z" fill="#385EF9"/>
<path fill-rule="evenodd" clip-rule="evenodd" d="M10.4737 4.27321L11.7866 5.59444C11.8662 5.67451 11.9856 5.71455 12.1447 5.71455H13.9749C14.2534 5.71455 14.4922 5.95478 14.4922 6.23504V8.07675C14.4922 8.19686 14.5319 8.35701 14.6513 8.43709L15.9643 9.71828C16.1632 9.91847 16.1632 10.2388 15.9643 10.439L14.6513 11.7201C14.5319 11.8403 14.4922 11.9604 14.4922 12.1205V13.9622C14.4922 14.2425 14.2534 14.4827 13.9749 14.4827H12.1447C12.0254 14.4827 11.8662 14.5228 11.7866 14.6429L10.4737 15.9641C10.2747 16.1643 9.95643 16.1643 9.7575 15.9641L8.44452 14.6429C8.36495 14.5628 8.2058 14.4827 8.08644 14.4827H6.25623C5.97772 14.4827 5.739 14.2425 5.739 13.9622V12.1205C5.739 12.0004 5.69921 11.8403 5.57985 11.7602L4.26688 10.479C4.06794 10.2788 4.06794 9.95851 4.26688 9.75832L5.57985 8.47713C5.69921 8.31698 5.739 8.19686 5.739 8.07675V6.23504C5.739 5.95478 5.97772 5.71455 6.25623 5.71455H8.08644C8.2058 5.71455 8.36495 5.67451 8.44452 5.5544L9.7575 4.23317C9.95643 4.07302 10.2747 4.07302 10.4737 4.27321Z" fill="white"/>
<path fill-rule="evenodd" clip-rule="evenodd" d="M12.8556 7.79891C13.0975 8.01577 13.1178 8.38767 12.9009 8.62956L9.59859 12.313C9.38466 12.5516 9.01908 12.5751 8.7764 12.3658L7.38385 11.1646C7.13785 10.9524 7.11043 10.581 7.32262 10.335C7.53481 10.089 7.90625 10.0616 8.15226 10.2738L9.10783 11.098L12.0249 7.84422C12.2418 7.60233 12.6137 7.58204 12.8556 7.79891Z" fill="#385EF9"/>
</svg>

<svg width="20" height="20" fill="none" xmlns="http://www.w3.org/2000/svg"><path fill-rule="evenodd" clip-rule="evenodd" d="M0 10C0 4.477 4.477 0 10 0s10 4.477 10 10-4.477 10-10 10S0 15.523 0 10z" fill="#385EF9"/><path fill-rule="evenodd" clip-rule="evenodd" d="M10.474 4.273l1.313 1.321c.08.08.199.12.358.12h1.83c.278 0 .517.24.517.521v1.842c0 .12.04.28.16.36l1.312 1.281a.51.51 0 010 .721l-1.313 1.281c-.12.12-.159.24-.159.4v1.842c0 .28-.239.52-.517.52h-1.83c-.12 0-.279.04-.358.16l-1.313 1.322c-.2.2-.518.2-.716 0l-1.313-1.321a.59.59 0 00-.359-.16h-1.83a.528.528 0 01-.517-.52V12.12c0-.12-.04-.28-.16-.36l-1.312-1.282a.51.51 0 010-.72L5.58 8.476c.12-.16.159-.28.159-.4V6.235c0-.28.239-.52.517-.52h1.83c.12 0 .279-.04.359-.16l1.313-1.322a.544.544 0 01.716.04z" fill="#fff"/><path fill-rule="evenodd" clip-rule="evenodd" d="M12.856 7.799a.588.588 0 01.045.83l-3.302 3.684a.588.588 0 01-.823.053l-1.392-1.201a.588.588 0 11.768-.891l.956.824 2.917-3.254a.588.588 0 01.83-.045z" fill="#385EF9"/></svg>
